X:506
T: MEIN GMUETH IST MIR VERWIRRET
N: E0476
O: Europa, Mitteleuropa, Deutschland
R: Liebes - Lied
M: 4/4
L: 1/4
K: C
 | E,2A,2 | G,F,2E, | D,2E,2 |
B,2C2 | CB,2B, | A,4 |
E,2A,2 | G,F,2E, | D,2E,2 |
B,2C2 | CB,2B, | A,2z
C | B,G,A,B, | C3
G, | A,G,A,F, | E,4 |
C2B,2 | DC2B, | A,2B,2 |
E,2F,2 | E,D,2D, | E,4

@@@ Tune index: 4156
